images/50210028.svg

<?xml version="1.0" encoding="UTF-8"?>
<svg xmlns="http://www.w3.org/2000/svg" xmlns:xlink="http://www.w3.org/1999/xlink" width="300pt" height="300pt" viewBox="0 0 300 300" version="1.1">
<defs>
<g>
<symbol overflow="visible" id="glyph0-0">
<path style="stroke:none;" d="M 0.546875 1.9375 L 0.546875 -7.75 L 6.046875 -7.75 L 6.046875 1.9375 Z M 1.171875 1.328125 L 5.4375 1.328125 L 5.4375 -7.140625 L 1.171875 -7.140625 Z M 1.171875 1.328125 "/>
</symbol>
<symbol overflow="visible" id="glyph0-1">
<path style="stroke:none;" d="M 1.078125 -8.015625 L 5.6875 -8.015625 L 5.6875 -7.109375 L 2.171875 -7.109375 L 2.171875 -4.75 L 5.34375 -4.75 L 5.34375 -3.828125 L 2.171875 -3.828125 L 2.171875 0 L 1.078125 0 Z M 1.078125 -8.015625 "/>
</symbol>
<symbol overflow="visible" id="glyph0-2">
<path style="stroke:none;" d="M 1.078125 -8.015625 L 2.546875 -8.015625 L 6.09375 -1.3125 L 6.09375 -8.015625 L 7.15625 -8.015625 L 7.15625 0 L 5.6875 0 L 2.125 -6.703125 L 2.125 0 L 1.078125 0 Z M 1.078125 -8.015625 "/>
</symbol>
<symbol overflow="visible" id="glyph0-3">
<path style="stroke:none;" d="M 1.078125 -8.015625 L 2.171875 -8.015625 L 2.171875 -4.734375 L 6.109375 -4.734375 L 6.109375 -8.015625 L 7.1875 -8.015625 L 7.1875 0 L 6.109375 0 L 6.109375 -3.8125 L 2.171875 -3.8125 L 2.171875 0 L 1.078125 0 Z M 1.078125 -8.015625 "/>
</symbol>
<symbol overflow="visible" id="glyph1-0">
<path style="stroke:none;" d="M 0.453125 1.59375 L 0.453125 -6.34375 L 4.953125 -6.34375 L 4.953125 1.59375 Z M 0.953125 1.09375 L 4.453125 1.09375 L 4.453125 -5.84375 L 0.953125 -5.84375 Z M 0.953125 1.09375 "/>
</symbol>
<symbol overflow="visible" id="glyph1-1">
<path style="stroke:none;" d="M 1.734375 -0.75 L 4.828125 -0.75 L 4.828125 0 L 0.65625 0 L 0.65625 -0.75 C 1 -1.09375 1.457031 -1.554688 2.03125 -2.140625 C 2.613281 -2.734375 2.984375 -3.113281 3.140625 -3.28125 C 3.421875 -3.601562 3.613281 -3.875 3.71875 -4.09375 C 3.832031 -4.320312 3.890625 -4.539062 3.890625 -4.75 C 3.890625 -5.101562 3.769531 -5.390625 3.53125 -5.609375 C 3.289062 -5.828125 2.972656 -5.9375 2.578125 -5.9375 C 2.296875 -5.9375 2 -5.882812 1.6875 -5.78125 C 1.382812 -5.6875 1.054688 -5.539062 0.703125 -5.34375 L 0.703125 -6.25 C 1.054688 -6.382812 1.390625 -6.488281 1.703125 -6.5625 C 2.015625 -6.644531 2.300781 -6.6875 2.5625 -6.6875 C 3.238281 -6.6875 3.78125 -6.515625 4.1875 -6.171875 C 4.59375 -5.828125 4.796875 -5.375 4.796875 -4.8125 C 4.796875 -4.539062 4.742188 -4.28125 4.640625 -4.03125 C 4.535156 -3.789062 4.351562 -3.507812 4.09375 -3.1875 C 4.019531 -3.101562 3.785156 -2.859375 3.390625 -2.453125 C 2.992188 -2.046875 2.441406 -1.476562 1.734375 -0.75 Z M 1.734375 -0.75 "/>
</symbol>
</g>
</defs>
<g id="surface15933">
<rect x="0" y="0" width="300" height="300" style="fill:rgb(100%,100%,100%);fill-opacity:1;stroke:none;"/>
<path style="fill:none;stroke-width:1.2;stroke-linecap:butt;stroke-linejoin:miter;stroke:rgb(20%,80%,80%);stroke-opacity:1;stroke-miterlimit:10;" d="M 199.503906 209.179688 L 207.660156 197.773438 "/>
<path style="fill:none;stroke-width:1.2;stroke-linecap:butt;stroke-linejoin:miter;stroke:rgb(0%,0%,0%);stroke-opacity:1;stroke-miterlimit:10;" d="M 207.660156 197.773438 L 215.8125 186.363281 "/>
<path style=" stroke:none;fill-rule:nonzero;fill:rgb(100%,100%,100%);fill-opacity:1;" d="M 192.503906 202.679688 L 199.503906 202.679688 L 199.503906 215.679688 L 192.503906 215.679688 Z M 192.503906 202.679688 "/>
<g style="fill:rgb(20%,80%,80%);fill-opacity:1;">
  <use xlink:href="#glyph0-1" x="192.503906" y="212.581055"/>
</g>
<path style="fill:none;stroke-width:1.2;stroke-linecap:butt;stroke-linejoin:miter;stroke:rgb(0%,0%,0%);stroke-opacity:1;stroke-miterlimit:10;" d="M 215.8125 186.363281 L 204.210938 160.828125 "/>
<path style="fill:none;stroke-width:1.2;stroke-linecap:butt;stroke-linejoin:miter;stroke:rgb(0%,0%,0%);stroke-opacity:1;stroke-miterlimit:10;" d="M 220.664062 181.078125 L 211.378906 160.652344 "/>
<path style="fill:none;stroke-width:1.2;stroke-linecap:butt;stroke-linejoin:miter;stroke:rgb(0%,0%,0%);stroke-opacity:1;stroke-miterlimit:10;" d="M 243.730469 189.082031 L 215.8125 186.363281 "/>
<path style="fill:none;stroke-width:1.2;stroke-linecap:butt;stroke-linejoin:miter;stroke:rgb(0%,0%,0%);stroke-opacity:1;stroke-miterlimit:10;" d="M 204.210938 160.828125 L 176.292969 158.109375 "/>
<path style="fill:none;stroke-width:1.2;stroke-linecap:butt;stroke-linejoin:miter;stroke:rgb(0%,0%,0%);stroke-opacity:1;stroke-miterlimit:10;" d="M 204.210938 160.828125 L 220.523438 138.011719 "/>
<path style="fill:none;stroke-width:1.2;stroke-linecap:butt;stroke-linejoin:miter;stroke:rgb(0%,0%,0%);stroke-opacity:1;stroke-miterlimit:10;" d="M 176.292969 158.109375 L 166.992188 168.605469 "/>
<path style="fill:none;stroke-width:1.2;stroke-linecap:butt;stroke-linejoin:miter;stroke:rgb(0%,0%,100%);stroke-opacity:1;stroke-miterlimit:10;" d="M 166.992188 168.605469 L 157.6875 179.097656 "/>
<path style="fill:none;stroke-width:1.2;stroke-linecap:butt;stroke-linejoin:miter;stroke:rgb(0%,0%,0%);stroke-opacity:1;stroke-miterlimit:10;" d="M 162.085938 133.929688 L 176.292969 158.109375 "/>
<path style="fill:none;stroke-width:1.2;stroke-linecap:butt;stroke-linejoin:miter;stroke:rgb(0%,0%,0%);stroke-opacity:1;stroke-miterlimit:10;" d="M 157.816406 139.691406 L 169.183594 159.035156 "/>
<path style="fill:none;stroke-width:1.2;stroke-linecap:butt;stroke-linejoin:miter;stroke:rgb(0%,0%,100%);stroke-opacity:1;stroke-miterlimit:10;" d="M 157.6875 179.097656 L 144.832031 173.492188 "/>
<path style="fill:none;stroke-width:1.2;stroke-linecap:butt;stroke-linejoin:miter;stroke:rgb(0%,0%,0%);stroke-opacity:1;stroke-miterlimit:10;" d="M 144.832031 173.492188 L 131.976562 167.886719 "/>
<path style=" stroke:none;fill-rule:nonzero;fill:rgb(100%,100%,100%);fill-opacity:1;" d="M 149.6875 172.597656 L 166.6875 172.597656 L 166.6875 185.597656 L 149.6875 185.597656 Z M 149.6875 172.597656 "/>
<g style="fill:rgb(0%,0%,100%);fill-opacity:1;">
  <use xlink:href="#glyph0-2" x="149.6875" y="182.499023"/>
  <use xlink:href="#glyph0-3" x="157.670898" y="182.499023"/>
</g>
<path style="fill:none;stroke-width:1.2;stroke-linecap:butt;stroke-linejoin:miter;stroke:rgb(0%,0%,0%);stroke-opacity:1;stroke-miterlimit:10;" d="M 131.976562 167.886719 L 134.695312 139.96875 "/>
<path style="fill:none;stroke-width:1.2;stroke-linecap:butt;stroke-linejoin:miter;stroke:rgb(0%,0%,0%);stroke-opacity:1;stroke-miterlimit:10;" d="M 138.816406 165.734375 L 140.992188 143.402344 "/>
<path style="fill:none;stroke-width:1.2;stroke-linecap:butt;stroke-linejoin:miter;stroke:rgb(0%,0%,0%);stroke-opacity:1;stroke-miterlimit:10;" d="M 131.976562 167.886719 L 107.796875 182.09375 "/>
<path style="fill:none;stroke-width:1.2;stroke-linecap:butt;stroke-linejoin:miter;stroke:rgb(0%,0%,0%);stroke-opacity:1;stroke-miterlimit:10;" d="M 134.695312 139.96875 L 162.085938 133.929688 "/>
<path style="fill:none;stroke-width:1.2;stroke-linecap:butt;stroke-linejoin:miter;stroke:rgb(0%,0%,0%);stroke-opacity:1;stroke-miterlimit:10;" d="M 134.695312 139.96875 L 113.710938 121.363281 "/>
<path style="fill:none;stroke-width:1.2;stroke-linecap:butt;stroke-linejoin:miter;stroke:rgb(0%,0%,0%);stroke-opacity:1;stroke-miterlimit:10;" d="M 113.710938 121.363281 L 119.332031 93.882812 "/>
<path style="fill:none;stroke-width:1.2;stroke-linecap:butt;stroke-linejoin:miter;stroke:rgb(0%,0%,0%);stroke-opacity:1;stroke-miterlimit:10;" d="M 107.804688 117.292969 L 112.304688 95.308594 "/>
<path style="fill:none;stroke-width:1.2;stroke-linecap:butt;stroke-linejoin:miter;stroke:rgb(0%,0%,0%);stroke-opacity:1;stroke-miterlimit:10;" d="M 87.101562 130.234375 L 113.710938 121.363281 "/>
<path style="fill:none;stroke-width:1.2;stroke-linecap:butt;stroke-linejoin:miter;stroke:rgb(0%,0%,0%);stroke-opacity:1;stroke-miterlimit:10;" d="M 119.332031 93.882812 L 98.34375 75.277344 "/>
<path style="fill:none;stroke-width:1.2;stroke-linecap:butt;stroke-linejoin:miter;stroke:rgb(0%,0%,0%);stroke-opacity:1;stroke-miterlimit:10;" d="M 98.34375 75.277344 L 85.039062 79.710938 "/>
<path style="fill:none;stroke-width:1.2;stroke-linecap:butt;stroke-linejoin:miter;stroke:rgb(0%,0%,100%);stroke-opacity:1;stroke-miterlimit:10;" d="M 85.039062 79.710938 L 71.734375 84.148438 "/>
<path style="fill:none;stroke-width:1.2;stroke-linecap:butt;stroke-linejoin:miter;stroke:rgb(0%,0%,0%);stroke-opacity:1;stroke-miterlimit:10;" d="M 97.769531 82.425781 L 87.128906 85.972656 "/>
<path style="fill:none;stroke-width:1.2;stroke-linecap:butt;stroke-linejoin:miter;stroke:rgb(0%,0%,100%);stroke-opacity:1;stroke-miterlimit:10;" d="M 87.128906 85.972656 L 76.484375 89.519531 "/>
<path style="fill:none;stroke-width:1.2;stroke-linecap:butt;stroke-linejoin:miter;stroke:rgb(0%,0%,100%);stroke-opacity:1;stroke-miterlimit:10;" d="M 71.734375 84.148438 L 68.925781 97.886719 "/>
<path style="fill:none;stroke-width:1.2;stroke-linecap:butt;stroke-linejoin:miter;stroke:rgb(0%,0%,0%);stroke-opacity:1;stroke-miterlimit:10;" d="M 68.925781 97.886719 L 66.113281 111.625 "/>
<path style=" stroke:none;fill-rule:nonzero;fill:rgb(100%,100%,100%);fill-opacity:1;" d="M 67.734375 77.648438 L 75.734375 77.648438 L 75.734375 90.648438 L 67.734375 90.648438 Z M 67.734375 77.648438 "/>
<g style="fill:rgb(0%,0%,100%);fill-opacity:1;">
  <use xlink:href="#glyph0-2" x="67.734375" y="87.549805"/>
</g>
<path style="fill:none;stroke-width:1.2;stroke-linecap:butt;stroke-linejoin:miter;stroke:rgb(0%,0%,0%);stroke-opacity:1;stroke-miterlimit:10;" d="M 66.113281 111.625 L 87.101562 130.234375 "/>
<path style="fill:none;stroke-width:1.2;stroke-linecap:butt;stroke-linejoin:miter;stroke:rgb(0%,0%,0%);stroke-opacity:1;stroke-miterlimit:10;" d="M 72.59375 108.550781 L 89.382812 123.433594 "/>
<path style="fill:none;stroke-width:1.2;stroke-linecap:butt;stroke-linejoin:miter;stroke:rgb(0%,0%,0%);stroke-opacity:1;stroke-miterlimit:10;" d="M 107.796875 182.09375 L 83.398438 168.257812 "/>
<path style="fill:none;stroke-width:1.2;stroke-linecap:butt;stroke-linejoin:miter;stroke:rgb(0%,0%,0%);stroke-opacity:1;stroke-miterlimit:10;" d="M 102.101562 186.453125 L 82.582031 175.382812 "/>
<path style="fill:none;stroke-width:1.2;stroke-linecap:butt;stroke-linejoin:miter;stroke:rgb(0%,0%,0%);stroke-opacity:1;stroke-miterlimit:10;" d="M 108.011719 210.140625 L 107.796875 182.09375 "/>
<path style="fill:none;stroke-width:1.2;stroke-linecap:butt;stroke-linejoin:miter;stroke:rgb(0%,0%,0%);stroke-opacity:1;stroke-miterlimit:10;" d="M 83.398438 168.257812 L 59.21875 182.46875 "/>
<path style="fill:none;stroke-width:1.2;stroke-linecap:butt;stroke-linejoin:miter;stroke:rgb(0%,0%,0%);stroke-opacity:1;stroke-miterlimit:10;" d="M 59.21875 182.46875 L 59.433594 210.515625 "/>
<path style="fill:none;stroke-width:1.2;stroke-linecap:butt;stroke-linejoin:miter;stroke:rgb(0%,0%,0%);stroke-opacity:1;stroke-miterlimit:10;" d="M 65.839844 185.222656 L 66.011719 207.660156 "/>
<path style="fill:none;stroke-width:1.2;stroke-linecap:butt;stroke-linejoin:miter;stroke:rgb(0%,0%,0%);stroke-opacity:1;stroke-miterlimit:10;" d="M 59.433594 210.515625 L 47.339844 217.617188 "/>
<path style="fill:none;stroke-width:1.2;stroke-linecap:butt;stroke-linejoin:miter;stroke:rgb(20%,80%,80%);stroke-opacity:1;stroke-miterlimit:10;" d="M 47.339844 217.617188 L 35.25 224.722656 "/>
<path style="fill:none;stroke-width:1.2;stroke-linecap:butt;stroke-linejoin:miter;stroke:rgb(0%,0%,0%);stroke-opacity:1;stroke-miterlimit:10;" d="M 59.433594 210.515625 L 83.828125 224.351562 "/>
<path style=" stroke:none;fill-rule:nonzero;fill:rgb(100%,100%,100%);fill-opacity:1;" d="M 28.25 218.222656 L 35.25 218.222656 L 35.25 231.222656 L 28.25 231.222656 Z M 28.25 218.222656 "/>
<g style="fill:rgb(20%,80%,80%);fill-opacity:1;">
  <use xlink:href="#glyph0-1" x="28.25" y="228.124023"/>
</g>
<path style="fill:none;stroke-width:1.2;stroke-linecap:butt;stroke-linejoin:miter;stroke:rgb(0%,0%,0%);stroke-opacity:1;stroke-miterlimit:10;" d="M 83.828125 224.351562 L 108.011719 210.140625 "/>
<path style="fill:none;stroke-width:1.2;stroke-linecap:butt;stroke-linejoin:miter;stroke:rgb(0%,0%,0%);stroke-opacity:1;stroke-miterlimit:10;" d="M 82.902344 217.242188 L 102.25 205.875 "/>
<path style="fill:none;stroke-width:1.2;stroke-linecap:butt;stroke-linejoin:miter;stroke:rgb(0%,0%,0%);stroke-opacity:1;stroke-miterlimit:10;" d="M 220.523438 138.011719 L 214.71875 125.246094 "/>
<path style="fill:none;stroke-width:1.2;stroke-linecap:butt;stroke-linejoin:miter;stroke:rgb(20%,80%,80%);stroke-opacity:1;stroke-miterlimit:10;" d="M 214.71875 125.246094 L 208.917969 112.476562 "/>
<path style="fill:none;stroke-width:1.2;stroke-linecap:butt;stroke-linejoin:miter;stroke:rgb(0%,0%,0%);stroke-opacity:1;stroke-miterlimit:10;" d="M 220.523438 138.011719 L 248.4375 140.730469 "/>
<path style="fill:none;stroke-width:1.2;stroke-linecap:butt;stroke-linejoin:miter;stroke:rgb(0%,0%,0%);stroke-opacity:1;stroke-miterlimit:10;" d="M 222.675781 144.851562 L 245.007812 147.027344 "/>
<path style=" stroke:none;fill-rule:nonzero;fill:rgb(100%,100%,100%);fill-opacity:1;" d="M 201.917969 105.976562 L 208.917969 105.976562 L 208.917969 118.976562 L 201.917969 118.976562 Z M 201.917969 105.976562 "/>
<g style="fill:rgb(20%,80%,80%);fill-opacity:1;">
  <use xlink:href="#glyph0-1" x="201.917969" y="115.87793"/>
</g>
<path style="fill:none;stroke-width:1.2;stroke-linecap:butt;stroke-linejoin:miter;stroke:rgb(0%,0%,0%);stroke-opacity:1;stroke-miterlimit:10;" d="M 248.4375 140.730469 L 254.238281 153.496094 "/>
<path style="fill:none;stroke-width:1.2;stroke-linecap:butt;stroke-linejoin:miter;stroke:rgb(0%,0%,100%);stroke-opacity:1;stroke-miterlimit:10;" d="M 254.238281 153.496094 L 260.042969 166.265625 "/>
<path style="fill:none;stroke-width:1.2;stroke-linecap:butt;stroke-linejoin:miter;stroke:rgb(0%,0%,0%);stroke-opacity:1;stroke-miterlimit:10;" d="M 248.4375 140.730469 L 256.59375 129.320312 "/>
<path style="fill:none;stroke-width:1.2;stroke-linecap:butt;stroke-linejoin:miter;stroke:rgb(0%,0%,100%);stroke-opacity:1;stroke-miterlimit:10;" d="M 256.59375 129.320312 L 264.75 117.914062 "/>
<path style="fill:none;stroke-width:1.2;stroke-linecap:butt;stroke-linejoin:miter;stroke:rgb(0%,0%,100%);stroke-opacity:1;stroke-miterlimit:10;" d="M 260.042969 166.265625 L 251.886719 177.671875 "/>
<path style="fill:none;stroke-width:1.2;stroke-linecap:butt;stroke-linejoin:miter;stroke:rgb(0%,0%,0%);stroke-opacity:1;stroke-miterlimit:10;" d="M 251.886719 177.671875 L 243.730469 189.082031 "/>
<path style="fill:none;stroke-width:1.2;stroke-linecap:butt;stroke-linejoin:miter;stroke:rgb(0%,0%,100%);stroke-opacity:1;stroke-miterlimit:10;" d="M 253.042969 164.707031 L 246.515625 173.835938 "/>
<path style="fill:none;stroke-width:1.2;stroke-linecap:butt;stroke-linejoin:miter;stroke:rgb(0%,0%,0%);stroke-opacity:1;stroke-miterlimit:10;" d="M 246.515625 173.835938 L 239.992188 182.960938 "/>
<path style=" stroke:none;fill-rule:nonzero;fill:rgb(100%,100%,100%);fill-opacity:1;" d="M 256.042969 159.765625 L 264.042969 159.765625 L 264.042969 172.765625 L 256.042969 172.765625 Z M 256.042969 159.765625 "/>
<g style="fill:rgb(0%,0%,100%);fill-opacity:1;">
  <use xlink:href="#glyph0-2" x="256.042969" y="169.666992"/>
</g>
<path style="fill:none;stroke-width:1.2;stroke-linecap:butt;stroke-linejoin:miter;stroke:rgb(0%,0%,0%);stroke-opacity:1;stroke-miterlimit:10;" d="M 243.730469 189.082031 L 249.53125 201.847656 "/>
<path style="fill:none;stroke-width:1.2;stroke-linecap:butt;stroke-linejoin:miter;stroke:rgb(0%,0%,100%);stroke-opacity:1;stroke-miterlimit:10;" d="M 249.53125 201.847656 L 255.335938 214.617188 "/>
<path style=" stroke:none;fill-rule:nonzero;fill:rgb(100%,100%,100%);fill-opacity:1;" d="M 244.335938 206.117188 L 266.335938 206.117188 L 266.335938 223.117188 L 244.335938 223.117188 Z M 244.335938 206.117188 "/>
<g style="fill:rgb(0%,0%,100%);fill-opacity:1;">
  <use xlink:href="#glyph0-2" x="244.335938" y="216.018555"/>
  <use xlink:href="#glyph0-3" x="252.319336" y="216.018555"/>
</g>
<g style="fill:rgb(0%,0%,100%);fill-opacity:1;">
  <use xlink:href="#glyph1-1" x="260.34375" y="220.901367"/>
</g>
<path style=" stroke:none;fill-rule:nonzero;fill:rgb(100%,100%,100%);fill-opacity:1;" d="M 253.75 109.414062 L 275.75 109.414062 L 275.75 126.414062 L 253.75 126.414062 Z M 253.75 109.414062 "/>
<g style="fill:rgb(0%,0%,100%);fill-opacity:1;">
  <use xlink:href="#glyph0-2" x="253.75" y="119.31543"/>
  <use xlink:href="#glyph0-3" x="261.733398" y="119.31543"/>
</g>
<g style="fill:rgb(0%,0%,100%);fill-opacity:1;">
  <use xlink:href="#glyph1-1" x="269.757812" y="124.198242"/>
</g>
</g>
</svg>

<svg xmlns="http://www.w3.org/2000/svg" xmlns:xlink="http://www.w3.org/1999/xlink" width="300pt" height="300pt" viewBox="0 0 300 300"><defs><symbol overflow="visible"><path d="M.547 1.938V-7.75h5.5v9.688zm.625-.61h4.266v-8.47H1.171zm0 0"/></symbol><symbol overflow="visible" id="a"><path d="M1.078-8.016h4.61v.907H2.171v2.36h3.172v.922H2.172V0H1.078zm0 0"/></symbol><symbol overflow="visible" id="b"><path d="M1.078-8.016h1.47l3.546 6.704v-6.704h1.062V0H5.688L2.124-6.703V0H1.078zm0 0"/></symbol><symbol overflow="visible" id="c"><path d="M1.078-8.016h1.094v3.282H6.11v-3.282h1.077V0H6.11v-3.813H2.17V0H1.078zm0 0"/></symbol><symbol overflow="visible"><path d="M.453 1.594v-7.938h4.5v7.938zm.5-.5h3.5v-6.938h-3.5zm0 0"/></symbol><symbol overflow="visible" id="d"><path d="M1.734-.75h3.094V0H.656v-.75c.344-.344.8-.805 1.375-1.39.583-.594.954-.973 1.11-1.14.282-.322.473-.595.58-.814.112-.226.17-.445.17-.656 0-.352-.12-.64-.36-.86-.24-.218-.557-.327-.952-.327-.28 0-.578.054-.89.156-.305.093-.633.24-.985.436v-.906c.352-.133.688-.238 1-.313.313-.082.598-.125.86-.125.675 0 1.218.172 1.624.516.407.344.61.797.61 1.36 0 .273-.055.53-.156.78-.105.243-.288.524-.546.845-.074.085-.31.328-.703.734-.398.406-.95.976-1.656 1.703zm0 0"/></symbol></defs><g><path fill="#fff" d="M0 0h300v300H0z"/><path d="M199.504 209.18l8.156-11.407" stroke-width="1.2" stroke="#3cc" stroke-miterlimit="10" fill="none"/><path d="M207.66 197.773l8.153-11.41" stroke-width="1.2" stroke="#000" stroke-miterlimit="10" fill="none"/><path d="M192.504 202.68h7v13h-7zm0 0" fill="#fff"/><use xlink:href="#a" x="192.504" y="212.581" fill="#3cc"/><path d="M215.813 186.363l-11.602-25.535M220.664 181.078l-9.285-20.426M243.73 189.082l-27.917-2.72M204.21 160.828l-27.917-2.72M204.21 160.828l16.313-22.816M176.293 158.11l-9.3 10.495" stroke-width="1.2" stroke="#000" stroke-miterlimit="10" fill="none"/><path d="M166.992 168.605l-9.304 10.493" stroke-width="1.2" stroke="#00f" stroke-miterlimit="10" fill="none"/><path d="M162.086 133.93l14.207 24.18M157.816 139.69l11.368 19.345" stroke-width="1.2" stroke="#000" stroke-miterlimit="10" fill="none"/><path d="M157.688 179.098l-12.856-5.606" stroke-width="1.2" stroke="#00f" stroke-miterlimit="10" fill="none"/><path d="M144.832 173.492l-12.855-5.605" stroke-width="1.2" stroke="#000" stroke-miterlimit="10" fill="none"/><path d="M149.688 172.598h17v13h-17zm0 0" fill="#fff"/><g fill="#00f"><use xlink:href="#b" x="149.688" y="182.499"/><use xlink:href="#c" x="157.671" y="182.499"/></g><path d="M131.977 167.887l2.718-27.918M138.816 165.734l2.176-22.332M131.977 167.887l-24.18 14.207M134.695 139.97l27.39-6.04M134.695 139.97l-20.984-18.607M113.71 121.363l5.622-27.48M107.805 117.293l4.5-21.984M87.102 130.234l26.61-8.87M119.332 93.883L98.344 75.277M98.344 75.277L85.04 79.71" stroke-width="1.2" stroke="#000" stroke-miterlimit="10" fill="none"/><path d="M85.04 79.71L71.733 84.15" stroke-width="1.2" stroke="#00f" stroke-miterlimit="10" fill="none"/><path d="M97.77 82.426l-10.64 3.547" stroke-width="1.2" stroke="#000" stroke-miterlimit="10" fill="none"/><path d="M87.13 85.973L76.483 89.52M71.734 84.148l-2.808 13.74" stroke-width="1.2" stroke="#00f" stroke-miterlimit="10" fill="none"/><path d="M68.926 97.887l-2.813 13.738" stroke-width="1.2" stroke="#000" stroke-miterlimit="10" fill="none"/><path d="M67.734 77.648h8v13h-8zm0 0" fill="#fff"/><use xlink:href="#b" x="67.734" y="87.55" fill="#00f"/><path d="M66.113 111.625l20.99 18.61M72.594 108.55l16.79 14.884M107.797 182.094l-24.4-13.836M102.102 186.453l-19.52-11.07M108.012 210.14l-.215-28.046M83.398 168.258l-24.18 14.21M59.22 182.47l.214 28.046M65.84 185.223l.172 22.437M59.434 210.516l-12.094 7.1" stroke-width="1.2" stroke="#000" stroke-miterlimit="10" fill="none"/><path d="M47.34 217.617l-12.09 7.106" stroke-width="1.2" stroke="#3cc" stroke-miterlimit="10" fill="none"/><path d="M59.434 210.516l24.394 13.836" stroke-width="1.2" stroke="#000" stroke-miterlimit="10" fill="none"/><path d="M28.25 218.223h7v13h-7zm0 0" fill="#fff"/><use xlink:href="#a" x="28.25" y="228.124" fill="#3cc"/><path d="M83.828 224.352l24.184-14.21M82.902 217.242l19.348-11.367M220.523 138.012l-5.804-12.766" stroke-width="1.2" stroke="#000" stroke-miterlimit="10" fill="none"/><path d="M214.72 125.246l-5.802-12.77" stroke-width="1.2" stroke="#3cc" stroke-miterlimit="10" fill="none"/><path d="M220.523 138.012l27.915 2.718M222.676 144.852l22.332 2.175" stroke-width="1.2" stroke="#000" stroke-miterlimit="10" fill="none"/><path d="M201.918 105.977h7v13h-7zm0 0" fill="#fff"/><use xlink:href="#a" x="201.918" y="115.878" fill="#3cc"/><path d="M248.438 140.73l5.8 12.766" stroke-width="1.2" stroke="#000" stroke-miterlimit="10" fill="none"/><path d="M254.238 153.496l5.805 12.77" stroke-width="1.2" stroke="#00f" stroke-miterlimit="10" fill="none"/><path d="M248.438 140.73l8.156-11.41" stroke-width="1.2" stroke="#000" stroke-miterlimit="10" fill="none"/><path d="M256.594 129.32l8.156-11.406M260.043 166.266l-8.156 11.406" stroke-width="1.2" stroke="#00f" stroke-miterlimit="10" fill="none"/><path d="M251.887 177.672l-8.157 11.41" stroke-width="1.2" stroke="#000" stroke-miterlimit="10" fill="none"/><path d="M253.043 164.707l-6.527 9.13" stroke-width="1.2" stroke="#00f" stroke-miterlimit="10" fill="none"/><path d="M246.516 173.836l-6.524 9.125" stroke-width="1.2" stroke="#000" stroke-miterlimit="10" fill="none"/><path d="M256.043 159.766h8v13h-8zm0 0" fill="#fff"/><use xlink:href="#b" x="256.043" y="169.667" fill="#00f"/><path d="M243.73 189.082l5.8 12.766" stroke-width="1.2" stroke="#000" stroke-miterlimit="10" fill="none"/><path d="M249.53 201.848l5.806 12.77" stroke-width="1.2" stroke="#00f" stroke-miterlimit="10" fill="none"/><path d="M244.336 206.117h22v17h-22zm0 0" fill="#fff"/><g fill="#00f"><use xlink:href="#b" x="244.336" y="216.019"/><use xlink:href="#c" x="252.319" y="216.019"/></g><use xlink:href="#d" x="260.344" y="220.901" fill="#00f"/><path d="M253.75 109.414h22v17h-22zm0 0" fill="#fff"/><g fill="#00f"><use xlink:href="#b" x="253.75" y="119.315"/><use xlink:href="#c" x="261.733" y="119.315"/></g><use xlink:href="#d" x="269.758" y="124.198" fill="#00f"/></g></svg>
